svg/color/cvnx.svg

<?xml version="1.0" encoding="UTF-8" ?>
<!DOCTYPE svg PUBLIC "-//W3C//DTD SVG 1.1//EN" "http://www.w3.org/Graphics/SVG/1.1/DTD/svg11.dtd">
<svg width="250pt" height="241pt" viewBox="0 0 250 241" version="1.1" xmlns="http://www.w3.org/2000/svg">
<g id="#ffffffff">
<path fill="#ffffff" opacity="1.00" d=" M 0.00 0.00 L 250.00 0.00 L 250.00 241.00 L 0.00 241.00 L 0.00 0.00 M 116.38 11.38 C 98.86 12.77 81.56 18.20 66.75 27.72 C 45.19 41.22 28.70 62.55 21.02 86.79 C 13.91 109.85 14.43 135.32 23.00 157.92 C 32.58 183.79 52.64 205.43 77.43 217.42 C 97.07 226.70 119.59 230.41 141.08 226.78 C 164.22 223.42 186.00 212.01 202.24 195.23 C 221.89 175.20 233.61 147.17 232.73 119.00 C 233.31 97.09 225.88 75.39 213.50 57.46 C 198.94 36.72 177.05 21.09 152.46 14.75 C 140.74 11.64 128.47 10.53 116.38 11.38 Z" />
<path fill="#ffffff" opacity="1.00" d=" M 118.37 61.56 C 133.95 59.74 150.09 64.89 162.01 74.99 C 172.84 84.00 180.05 97.05 182.21 110.95 C 183.25 121.43 182.63 132.37 178.20 142.08 C 171.01 159.85 154.41 173.28 135.60 176.81 C 124.62 178.82 112.93 178.02 102.64 173.52 C 86.45 167.44 74.10 153.20 68.80 136.93 C 64.05 120.82 65.94 102.47 75.36 88.37 C 84.55 73.40 100.94 63.36 118.37 61.56 M 118.47 86.71 C 108.18 88.94 98.87 95.74 94.35 105.35 C 91.09 111.55 90.80 118.79 91.66 125.60 C 93.72 136.43 101.42 146.15 111.69 150.29 C 119.50 153.67 128.69 153.72 136.58 150.56 C 145.73 147.18 152.91 139.33 156.10 130.18 C 157.88 124.98 157.65 119.37 157.26 113.97 C 154.77 96.24 135.96 83.19 118.47 86.71 Z" />
</g>
<g id="#000549ff">
<path fill="#000549" opacity="1.00" d=" M 116.38 11.38 C 128.47 10.53 140.74 11.64 152.46 14.75 C 177.05 21.09 198.94 36.72 213.50 57.46 C 225.88 75.39 233.31 97.09 232.73 119.00 C 233.61 147.17 221.89 175.20 202.24 195.23 C 186.00 212.01 164.22 223.42 141.08 226.78 C 119.59 230.41 97.07 226.70 77.43 217.42 C 52.64 205.43 32.58 183.79 23.00 157.92 C 14.43 135.32 13.91 109.85 21.02 86.79 C 28.70 62.55 45.19 41.22 66.75 27.72 C 81.56 18.20 98.86 12.77 116.38 11.38 M 118.37 61.56 C 100.94 63.36 84.55 73.40 75.36 88.37 C 65.94 102.47 64.05 120.82 68.80 136.93 C 74.10 153.20 86.45 167.44 102.64 173.52 C 112.93 178.02 124.62 178.82 135.60 176.81 C 154.41 173.28 171.01 159.85 178.20 142.08 C 182.63 132.37 183.25 121.43 182.21 110.95 C 180.05 97.05 172.84 84.00 162.01 74.99 C 150.09 64.89 133.95 59.74 118.37 61.56 Z" />
</g>
<g id="#68de6fff">
<path fill="#68de6f" opacity="1.00" d=" M 118.47 86.71 C 135.96 83.19 154.77 96.24 157.26 113.97 C 157.65 119.37 157.88 124.98 156.10 130.18 C 152.91 139.33 145.73 147.18 136.58 150.56 C 128.69 153.72 119.50 153.67 111.69 150.29 C 101.42 146.15 93.72 136.43 91.66 125.60 C 90.80 118.79 91.09 111.55 94.35 105.35 C 98.87 95.74 108.18 88.94 118.47 86.71 Z" />
</g>
</svg>

<?xml version="1.0" encoding="utf-8"?>
<!-- Generator: Adobe Illustrator 26.0.3, SVG Export Plug-In . SVG Version: 6.00 Build 0)  -->
<svg version="1.1" id="Layer_1" xmlns="http://www.w3.org/2000/svg" xmlns:xlink="http://www.w3.org/1999/xlink" x="0px" y="0px"
	 viewBox="0 0 250 241" style="enable-background:new 0 0 250 241;" xml:space="preserve">
<style type="text/css">
	.st0{fill:#FFFFFF;}
	.st1{fill:#000549;}
	.st2{fill:#68DE6F;}
</style>
<g id="_x23_ffffffff">
	<path class="st0" d="M118.4,61.6c15.6-1.8,31.7,3.3,43.6,13.4c10.8,9,18,22.1,20.2,36c1,10.5,0.4,21.4-4,31.1
		c-7.2,17.8-23.8,31.2-42.6,34.7c-11,2-22.7,1.2-33-3.3c-16.2-6.1-28.5-20.3-33.8-36.6c-4.8-16.1-2.9-34.5,6.6-48.6
		C84.6,73.4,100.9,63.4,118.4,61.6 M118.5,86.7c-10.3,2.2-19.6,9-24.1,18.6c-3.3,6.2-3.5,13.4-2.7,20.2c2.1,10.8,9.8,20.5,20,24.7
		c7.8,3.4,17,3.4,24.9,0.3c9.1-3.4,16.3-11.2,19.5-20.4c1.8-5.2,1.5-10.8,1.2-16.2C154.8,96.2,136,83.2,118.5,86.7z"/>
</g>
<g id="_x23_000549ff">
	<path class="st1" d="M116.4,11.4c12.1-0.9,24.4,0.3,36.1,3.4c24.6,6.3,46.5,22,61,42.7c12.4,17.9,19.8,39.6,19.2,61.5
		c0.9,28.2-10.8,56.2-30.5,76.2c-16.2,16.8-38,28.2-61.2,31.6c-21.5,3.6-44-0.1-63.7-9.4c-24.8-12-44.8-33.6-54.4-59.5
		c-8.6-22.6-9.1-48.1-2-71.1c7.7-24.2,24.2-45.6,45.7-59.1C81.6,18.2,98.9,12.8,116.4,11.4 M118.4,61.6c-17.4,1.8-33.8,11.8-43,26.8
		c-9.4,14.1-11.3,32.4-6.6,48.6c5.3,16.3,17.6,30.5,33.8,36.6c10.3,4.5,22,5.3,33,3.3c18.8-3.5,35.4-17,42.6-34.7
		c4.4-9.7,5.1-20.7,4-31.1c-2.2-13.9-9.4-26.9-20.2-36C150.1,64.9,133.9,59.7,118.4,61.6z"/>
</g>
<g id="_x23_68de6fff">
	<path class="st2" d="M118.5,86.7c17.5-3.5,36.3,9.5,38.8,27.3c0.4,5.4,0.6,11-1.2,16.2c-3.2,9.2-10.4,17-19.5,20.4
		c-7.9,3.2-17.1,3.1-24.9-0.3c-10.3-4.1-18-13.9-20-24.7c-0.9-6.8-0.6-14,2.7-20.2C98.9,95.7,108.2,88.9,118.5,86.7z"/>
</g>
</svg>
